X: 1
T: Jack Mitchell's
M: 2/4
L: 1/8
R: polka
K: Dmaj
DF AF/A/|dc BA|BE EE/F/|GG FE|
DF AF/A/|dc BA|Be Bc|d2 d2:|
fA fA|fA f>f|ed cd|e2 A2|
fA fA|fA f>f|ed Bc|d2 d2:|
